libs/ui/packages/crypto-icons/src/svg/ZEN.svg

<svg width="24" height="24" viewBox="0 0 24 24" fill="none">
<path d="M18.6566 7.22626L17.3216 9.30376C17.7475 10.1385 17.9677 11.0629 17.9636 12C17.9636 15.3 15.2936 17.9573 12.0064 17.9573C11.0736 17.9615 10.1534 17.7413 9.32361 17.3153L7.2326 18.663C8.58036 19.62 10.2176 20.1998 11.9936 20.1998C16.5154 20.1998 20.1934 16.5345 20.1934 12C20.1934 10.2113 19.6264 8.57401 18.6566 7.22626Z" fill="#00EAAB"/>
<path d="M12.0063 16.0928C12.9668 16.0927 13.8969 15.7565 14.6353 15.1423C15.3737 14.5281 15.8738 13.6749 16.0488 12.7305C14.7668 12.4514 13.4404 12.4452 12.1558 12.7121C10.8712 12.9791 9.65706 13.5133 8.59235 14.28C8.96798 14.8401 9.47619 15.2988 10.0718 15.6152C10.6674 15.9315 11.3319 16.0959 12.0063 16.0935V16.0928Z" fill="#00EAAB"/>
<path d="M14.0216 11.7728C14.7394 11.7728 15.4316 11.8485 16.1126 12C16.1122 10.9077 15.6782 9.86025 14.9058 9.08787C14.1334 8.31549 13.0859 7.8814 11.9936 7.881C11.4067 7.88148 10.8266 8.00767 10.2925 8.2511C9.75838 8.49453 9.2826 8.84954 8.89717 9.29224C8.51174 9.73494 8.22561 10.2551 8.05803 10.8176C7.89045 11.3801 7.84531 11.9721 7.92564 12.5535C6.89289 13.3478 6.40164 13.965 6.37614 13.9898C6.15343 13.3543 6.03859 12.6861 6.03639 12.0128C6.03639 8.71275 8.70639 6.05475 11.9936 6.05475C12.9634 6.05475 13.8701 6.28125 14.6764 6.6975L16.7546 5.34975C15.378 4.33933 13.714 3.79632 12.0064 3.80025C10.9293 3.79927 9.8626 4.01069 8.86732 4.42241C7.87203 4.83414 6.96771 5.43809 6.2061 6.1997C5.44448 6.96132 4.84053 7.86564 4.4288 8.86093C4.01708 9.85621 3.80566 10.9229 3.80664 12C3.80664 13.8263 4.39914 15.5018 5.40639 16.8615C5.79639 16.1565 6.26289 15.5138 6.80439 14.934C6.80439 14.934 7.61064 14.091 8.22789 13.6628C9.90858 12.4318 11.9384 11.7697 14.0216 11.7728Z" fill="#00EAAB"/>
</svg>

<svg width="24" height="24" viewBox="0 0 24 24" fill="none"><path fill="#00eaab" d="m18.657 7.226-1.335 2.078c.425.835.646 1.759.642 2.696 0 3.3-2.67 5.957-5.958 5.957a5.8 5.8 0 0 1-2.682-.642l-2.091 1.348a8.2 8.2 0 0 0 4.76 1.537 8.2 8.2 0 0 0 8.2-8.2 8.1 8.1 0 0 0-1.536-4.774"/><path fill="#00eaab" d="M12.006 16.093a4.11 4.11 0 0 0 4.043-3.363 9.36 9.36 0 0 0-7.457 1.55 4.1 4.1 0 0 0 3.414 1.813"/><path fill="#00eaab" d="M14.022 11.773c.717 0 1.41.075 2.09.227a4.12 4.12 0 0 0-4.118-4.119 4.11 4.11 0 0 0-4.068 4.672c-1.033.795-1.524 1.412-1.55 1.437a5.953 5.953 0 0 1 5.617-7.935c.97 0 1.877.226 2.683.642l2.079-1.347a8 8 0 0 0-4.749-1.55 8.19 8.19 0 0 0-8.2 8.2c0 1.826.593 3.502 1.6 4.861a9.7 9.7 0 0 1 1.398-1.927s.807-.843 1.424-1.271a9.78 9.78 0 0 1 5.794-1.89"/></svg>
